icons/svgs/clipboard-list-solid.svg

<svg width="24" height="24" viewBox="0 0 24 24" fill="none" xmlns="http://www.w3.org/2000/svg">
<path d="M12.5 2C14.1016 2 15.5078 3.05469 16.0156 4.5H17.5C18.8672 4.5 20 5.63281 20 7V19.5C20 20.9062 18.8672 22 17.5 22H7.5C6.09375 22 5 20.9062 5 19.5V7C5 5.63281 6.09375 4.5 7.5 4.5H8.94531C9.45312 3.05469 10.8594 2 12.5 2ZM12.5 4.5C11.7969 4.5 11.25 5.08594 11.25 5.75C11.25 6.45312 11.7969 7 12.5 7C13.1641 7 13.75 6.45312 13.75 5.75C13.75 5.08594 13.1641 4.5 12.5 4.5ZM7.8125 12.625C7.8125 13.1719 8.20312 13.5625 8.75 13.5625C9.25781 13.5625 9.6875 13.1719 9.6875 12.625C9.6875 12.1172 9.25781 11.6875 8.75 11.6875C8.20312 11.6875 7.8125 12.1172 7.8125 12.625ZM11.875 12C11.5234 12 11.25 12.3125 11.25 12.625C11.25 12.9766 11.5234 13.25 11.875 13.25H16.875C17.1875 13.25 17.5 12.9766 17.5 12.625C17.5 12.3125 17.1875 12 16.875 12H11.875ZM7.8125 16.375C7.8125 16.9219 8.20312 17.3125 8.75 17.3125C9.25781 17.3125 9.6875 16.9219 9.6875 16.375C9.6875 15.8672 9.25781 15.4375 8.75 15.4375C8.20312 15.4375 7.8125 15.8672 7.8125 16.375ZM11.25 16.375C11.25 16.7266 11.5234 17 11.875 17H16.875C17.1875 17 17.5 16.7266 17.5 16.375C17.5 16.0625 17.1875 15.75 16.875 15.75H11.875C11.5234 15.75 11.25 16.0625 11.25 16.375Z" fill="black"/>
</svg>

<svg xmlns="http://www.w3.org/2000/svg" width="24" height="24" fill="currentColor" class="icon-clipboard-list-solid" viewBox="0 0 24 24">
  <mask id="a" width="15" height="20" x="5" y="2" maskUnits="userSpaceOnUse" style="mask-type:alpha">
    <path d="M12.5 2c1.602 0 3.008 1.055 3.516 2.5H17.5C18.867 4.5 20 5.633 20 7v12.5c0 1.406-1.133 2.5-2.5 2.5h-10A2.47 2.47 0 0 1 5 19.5V7c0-1.367 1.094-2.5 2.5-2.5h1.445A3.78 3.78 0 0 1 12.5 2m0 2.5c-.703 0-1.25.586-1.25 1.25 0 .703.547 1.25 1.25 1.25.664 0 1.25-.547 1.25-1.25 0-.664-.586-1.25-1.25-1.25m-4.687 8.125c0 .547.39.938.937.938a.926.926 0 0 0 .938-.938.95.95 0 0 0-.938-.937.925.925 0 0 0-.937.937M11.875 12a.64.64 0 0 0-.625.625c0 .352.273.625.625.625h5a.64.64 0 0 0 .625-.625c0-.312-.312-.625-.625-.625zm-4.062 4.375c0 .547.39.938.937.938a.926.926 0 0 0 .938-.938.95.95 0 0 0-.938-.937.925.925 0 0 0-.937.937m3.437 0c0 .352.273.625.625.625h5a.64.64 0 0 0 .625-.625c0-.312-.312-.625-.625-.625h-5a.64.64 0 0 0-.625.625"/>
  </mask>
  <g mask="url(#a)">
    <path d="M0 0h24v24H0z"/>
  </g>
</svg>
